X:116
%%etbk:tnset id:41,pos:2,rep:3x,ant:
%%etbk:video src:ytube,cde:wEIcEXK1Rck,desc:first tune
%%etbk:color #ffffcc
%%etbk:pldat 2016-09-07T16:10,2016-07-22T16:21,2014-09-08T18:31,2014-04-28T19:07,2014-03-22T15:13,2014-02-11T17:23,2014-02-08T14:17,2013-12-07T18:06,2013-11-19T16:22,2013-11-07T16:13
T: Boys Of Ballysodare, The
Z: Piano Box Version by Martin Fleischmann
H: Created 2013-02-19 /  Last Modified 2016-09-06
M: 4/4
L: 1/8
R: reel
K: Gmaj
"G"!4!d!1!G !3!(3G!2!G!1!G !4!d!1!G!5!eG | !4!d!1!GGA "D"!3!B!2!AA2 | "G"!4!d!1!G !3!(3G!2!G!1!G !5!d2d!3!B | "D"!2!A!4!cBA !1!G!2!E!1!D2 |
 "G"!4!d!1!G !3!(3G!2!G!1!G !4!d!1!G!5!eG | !4!d!1!GGA "D"!3!B!2!AA2 | "G"!3!B!4!dd!3!B !5!e2!4!d!3!B | "D"!2!AcBA !1!G!2!E!1!D2||
"G"!3!g{a}!3!g!3!ga !5!bg!4!af | {a}!3!gfga !5!bg!1!ef | !3!ggga !5!bg!4!a!2!f | "D"!4!gfe!1!d !2!B!1!def |
"G"!4!!3!g3a !5!bg!4!af | {a}!3!gfga !5!bgeg | !5!bg!4!a!2!f !4!ge!1!d!3!B | "D"!2!AcBA !1!G!2!E!3!D2 ||
"G"!2!B!4!d!2!d{=f}d !1!B!2!d!5!gd | Bdgd "D"!1!B!1!A!1!A!2!d | "G"!1!B2!2!d!5!g !3!e!1!B!2!d!1!B | "D"!2!AcBA !1!G!2!E!1!D2 |
"G"!2!B!4!d!2!d{=f}d !1!B!2!d!5!gd | Bdgd "D"!1!Bz!3!B!4!d | "G"!5!e2!3!BB !5!e!3!B!4!d!3!B | "D"!2!AcBA !1!G!2!E!1!D2||


